Adwaita++/apps/scalable/eduke32.svg

<svg enable-background="new" height="128" viewBox="0 0 128 128" width="128" xmlns="http://www.w3.org/2000/svg">
  <path d="m124.00001 63.999998a59.999999 59.999999 0 0 1 -59.999999 60.000002 59.999999 59.999999 0 0 1 -60.000011-60.000002 59.999999 59.999999 0 0 1 60.000011-59.999996 59.999999 59.999999 0 0 1 59.999999 59.999996z" fill="#deddda"/>
  <rect fill="#d5d3cf" height="114" rx="56" width="112" x="8" y="6"/>
  <path d="m124.00001 62a59.999999 59.999999 0 0 1 -59.999999 60 59.999999 59.999999 0 0 1 -60.000011-60 59.999999 59.999999 0 0 1 60.000011-60.0000048 59.999999 59.999999 0 0 1 59.999999 60.0000048z" fill="#3b97ff"/>
  <circle cx="64" cy="62" fill="none" r="54"/>
  <g transform="translate(.292226 .337702)">
    <circle cx="63.707779" cy="61.662285" fill="#fff" r="53.999989" stroke-width=".482143"/>
    <circle cx="63.707779" cy="61.662285" fill="#0071f1" r="50" stroke-width=".446429"/>
    <circle cx="63.707779" cy="61.662285" fill="#002a5a" r="35" stroke-width=".3125"/>
    <circle cx="63.707779" cy="61.662285" fill="#003d82" r="30" stroke-width=".267857"/>
    <path d="m46.539062 29.847656a36.5 36.5 0 0 0 -2.412109 1.382813 36.5 36.5 0 0 0 -2.966797 2.123047 36.5 36.5 0 0 0 -2.742187 2.408203 36.5 36.5 0 0 0 -2.486328 2.669922 36.5 36.5 0 0 0 -2.208985 2.904297 36.5 36.5 0 0 0 -1.90625 3.109374 36.5 36.5 0 0 0 -1.585937 3.285157 36.5 36.5 0 0 0 -1.251953 3.427734 36.5 36.5 0 0 0 -.902344 3.535156 36.5 36.5 0 0 0 -.544922 3.607422 36.5 36.5 0 0 0 -.183594 3.644531 36.5 36.5 0 0 0 .06836 1.935547l4.142578.013672c-.036264-.627374-.058594-1.258233-.058594-1.894531 0-12.357358 6.934321-23.126054 17.115234-28.621094zm36.027344.8125-1.96289 3.416016c9.509585 5.676804 15.896484 16.067561 15.896484 27.923828 0 .710591-.031019 1.413893-.076172 2.113281l3.814452.011719a36.5 36.5 0 0 0 .10938-2.179688 36.5 36.5 0 0 0 -.08985-2.582031 36.5 36.5 0 0 0 -.441404-3.623047 36.5 36.5 0 0 0 -.798828-3.558593 36.5 36.5 0 0 0 -1.15039-3.462891 36.5 36.5 0 0 0 -1.490235-3.330078 36.5 36.5 0 0 0 -1.814453-3.166016 36.5 36.5 0 0 0 -2.123047-2.966797 36.5 36.5 0 0 0 -2.408203-2.740234 36.5 36.5 0 0 0 -2.669922-2.488281 36.5 36.5 0 0 0 -2.904297-2.207032 36.5 36.5 0 0 0 -1.890625-1.160156zm-31.425781 7.017578c-8.715386 4.606657-14.640625 13.755115-14.640625 24.322266 0 .643576.029035 1.279739.072266 1.912109l26.832031.089844-12.695313 22.087891c3.937252 2.172135 8.465438 3.410156 13.291016 3.410156 5.536764 0 10.680764-1.631859 14.990234-4.433594l-12.373046-21.052734 24.794921.082031c.051942-.692435.087891-1.3897.087891-2.095703 0-10.046942-5.357299-18.811224-13.375-23.609375l-13.134766 22.853516zm30.371094 51.677735c-5.058432 3.249761-11.066042 5.144531-17.511719 5.144531-5.719348 0-11.095987-1.490659-15.769531-4.095703l-2.007813 3.494141a36.5 36.5 0 0 0 .126953.078124 36.5 36.5 0 0 0 3.285157 1.585938 36.5 36.5 0 0 0 3.427734 1.251953 36.5 36.5 0 0 0 3.535156.902344 36.5 36.5 0 0 0 3.607422.544922 36.5 36.5 0 0 0 3.642578.183593 36.5 36.5 0 0 0 2.582032-.091796 36.5 36.5 0 0 0 3.623046-.439454 36.5 36.5 0 0 0 3.558594-.798828 36.5 36.5 0 0 0 3.462891-1.15039 36.5 36.5 0 0 0 3.330078-1.490235 36.5 36.5 0 0 0 3.078125-1.765625z" fill="#fff" transform="translate(-.292226 -.337702)"/>
    <circle cx="63.707779" cy="61.662285" fill="#003d82" r="7.5" stroke="#fff" stroke-width="5"/>
  </g>
  <path d="m64.00011 7.9999983a54.000004 54.000004 0 0 0 -54.000003 54.0000017 54.000004 54.000004 0 0 0 .041505 1.170902 54.000004 54.000004 0 0 1 53.958503-53.1709055 54.000004 54.000004 0 0 1 53.958495 52.8281295 54.000004 54.000004 0 0 0 .04152-.828126 54.000004 54.000004 0 0 0 -54.000016-54.0000017z" opacity=".1"/>
</svg>

<?xml version="1.0" encoding="UTF-8" standalone="no"?>
<svg
   xmlns:dc="http://purl.org/dc/elements/1.1/"
   xmlns:cc="http://creativecommons.org/ns#"
   xmlns:rdf="http://www.w3.org/1999/02/22-rdf-syntax-ns#"
   xmlns:svg="http://www.w3.org/2000/svg"
   xmlns="http://www.w3.org/2000/svg"
   xmlns:xlink="http://www.w3.org/1999/xlink"
   xmlns:sodipodi="http://sodipodi.sourceforge.net/DTD/sodipodi-0.dtd"
   xmlns:inkscape="http://www.inkscape.org/namespaces/inkscape"
   width="128"
   height="128"
   version="1.0"
   viewBox="0 0 128 128"
   style="enable-background:new"
   id="svg48"
   sodipodi:docname="com.github.treagod.spectator.svg"
   inkscape:version="0.92.3 (2405546, 2018-03-11)">
  <metadata
     id="metadata52">
    <rdf:RDF>
      <cc:Work
         rdf:about="">
        <dc:format>image/svg+xml</dc:format>
        <dc:type
           rdf:resource="http://purl.org/dc/dcmitype/StillImage" />
        <dc:title>
  Adwaita Icon Template
 </dc:title>
      </cc:Work>
    </rdf:RDF>
  </metadata>
  <sodipodi:namedview
     pagecolor="#ffffff"
     bordercolor="#666666"
     borderopacity="1"
     objecttolerance="10"
     gridtolerance="10"
     guidetolerance="10"
     inkscape:pageopacity="0"
     inkscape:pageshadow="2"
     inkscape:window-width="1920"
     inkscape:window-height="1009"
     id="namedview50"
     showgrid="false"
     inkscape:zoom="5.3712094"
     inkscape:cx="-1.4838334"
     inkscape:cy="64.82635"
     inkscape:window-x="0"
     inkscape:window-y="34"
     inkscape:window-maximized="1"
     inkscape:current-layer="g1590" />
  <title
     id="title4162">
  Adwaita Icon Template
 </title>
  <defs
     id="defs28">
    <linearGradient
       id="linearGradient950">
      <stop
         style="stop-color:#9a9996"
         id="stop946"
         offset="0" />
      <stop
         style="stop-color:#77767b"
         id="stop948"
         offset="1" />
    </linearGradient>
    <linearGradient
       id="linearGradient1001"
       x1="1660.857"
       x2="1662.99"
       y1="806.297"
       y2="812.882"
       gradientTransform="matrix(1.8293937,-0.81599442,0.81599442,1.8293937,-3645.9624,100.02949)"
       gradientUnits="userSpaceOnUse"
       xlink:href="#linearGradient950" />
    <clipPath
       id="clipPath5154"
       clipPathUnits="userSpaceOnUse">
      <circle
         cx="128"
         cy="924.362"
         r="109.647"
         style="fill:url(#radialGradient5158)"
         id="circle7" />
    </clipPath>
    <clipPath
       id="clipPath977"
       clipPathUnits="userSpaceOnUse">
      <circle
         cx="128"
         cy="924.362"
         r="109.647"
         style="fill:url(#radialGradient5158)"
         id="circle10" />
    </clipPath>
    <clipPath
       id="clipPath4688"
       clipPathUnits="userSpaceOnUse">
      <path
         d="m 106.42383,889.60156 c -2.2448,-0.0524 -4.09304,1.75264 -4.09375,3.99805 v 32.64453 32.64453 c -4e-5,3.07923 3.33305,5.004 6,3.46485 l 28.26953,-16.32227 28.27148,-16.32227 c 2.66559,-1.54001 2.66559,-5.38772 0,-6.92773 l -28.27148,-16.32227 -28.26953,-16.32226 c -0.58054,-0.3353 -1.23603,-0.51932 -1.90625,-0.53516 z"
         style="fill:url(#radialGradient4692);stroke:#a7003f;stroke-linecap:round;stroke-linejoin:round"
         id="path13" />
    </clipPath>
    <clipPath
       id="clipPath4564"
       clipPathUnits="userSpaceOnUse">
      <circle
         cx="128"
         cy="924.362"
         r="109.647"
         style="fill:url(#radialGradient4568)"
         id="circle16" />
    </clipPath>
    <clipPath
       id="clipPath6215"
       clipPathUnits="userSpaceOnUse">
      <path
         d="m 105.17325,806.18572 c -3.06859,0.56361 -6.11393,1.24721 -9.129005,2.04923 -3.838255,1.06506 -7.62084,2.32142 -11.333578,3.76438 -3.712189,1.44307 -7.34989,3.07087 -10.899472,4.87732 -3.549153,1.80656 -7.005749,3.78947 -10.35684,5.94129 -3.351877,2.15253 -6.593991,4.47137 -9.714191,6.94783 -3.119992,2.47544 -6.114241,5.10535 -8.971529,7.87988 -0.367219,0.38909 -0.731819,0.78065 -1.093777,1.17464 2.60205,17.85956 16.832359,40.03752 30.863064,55.74236 -4.76734,8.84435 -7.265993,18.73329 -7.272057,28.78068 0.02104,2.87431 0.246096,5.7435 0.673482,8.58593 -20.257302,-9.18513 -43.077023,-26.53494 -52.798465,-47.36396 -0.440667,1.15171 -0.863474,2.31018 -1.268271,3.47498 -1.176789,3.80495 -2.162562,7.66637 -2.953625,11.56979 -0.79154,3.90311 -1.3874065,7.84335 -1.7853678,11.80598 -0.39733,3.96334 -0.5961891,7.94407 -0.5958321,11.92728 -4.394e-4,2.81936 0.098928,5.63785 0.2979155,8.45018 0.282275,3.97319 0.763088,7.92978 1.4406374,11.85493 0.625626,3.51826 1.408798,7.00668 2.347153,10.45473 16.778133,6.68355 43.114514,5.45001 63.748015,1.14301 6.818545,11.02763 16.987182,19.58379 29.018153,24.41667 -18.071844,12.93645 -44.490188,24.02095 -67.37308,22.03245 1.384097,1.665 2.813203,3.2921 4.285735,4.8794 2.774977,2.8571 5.691103,5.5737 8.737453,8.1395 3.046107,2.5658 6.218619,4.9777 9.505651,7.2266 3.287242,2.2488 6.684891,4.3319 10.180217,6.2413 3.495379,1.9096 7.084075,3.6433 10.752641,5.1944 3.66896,1.5509 7.413193,2.9174 11.218668,4.0942 1.438565,0.3959 2.884421,0.7648 4.336807,1.1066 14.138748,-11.1844 26.206378,-34.5828 32.780368,-54.56406 12.95816,-0.38251 25.45395,-4.90132 35.65955,-12.89544 2.15922,22.12638 -1.46693,50.5581 -14.64692,69.3832 3.06859,-0.5636 6.11393,-1.2473 9.129,-2.0493 3.83826,-1.0651 7.62084,-2.3214 11.33358,-3.7644 3.71219,-1.4431 7.34989,-3.0709 10.89947,-4.8773 3.54915,-1.8066 7.00575,-3.7895 10.35684,-5.9413 3.35188,-2.1525 6.59399,-4.4714 9.71419,-6.9478 3.11999,-2.4754 6.11424,-5.1054 8.97153,-7.8799 0.36722,-0.3891 0.73182,-0.7806 1.09378,-1.1746 -2.60204,-17.85957 -16.83236,-40.03755 -30.86307,-55.74238 4.76735,-8.84435 7.266,-18.7333 7.27207,-28.78069 -0.021,-2.8743 -0.24611,-5.74349 -0.6735,-8.58592 20.25731,9.18513 43.07704,26.53494 52.79848,47.36396 0.44067,-1.15171 0.86347,-2.31018 1.26827,-3.47499 1.17679,-3.80495 2.16256,-7.66636 2.95362,-11.56978 0.79154,-3.90311 1.38741,-7.84335 1.78537,-11.80598 0.39733,-3.96334 0.59619,-7.94408 0.59583,-11.92729 4.4e-4,-2.81936 -0.0989,-5.63784 -0.29791,-8.45017 -0.28228,-3.97319 -0.76309,-7.92978 -1.44064,-11.85493 -0.62776,-3.53416 -1.41449,-7.03823 -2.35779,-10.50154 -20.56165,-7.32804 -45.89823,-4.79548 -63.74906,-1.11372 -6.81835,-11.01918 -16.98234,-19.56874 -29.00647,-24.39915 18.07184,-12.93645 44.49019,-24.02091 67.37307,-22.03241 -1.38409,-1.66502 -2.8132,-3.2921 -4.28573,-4.87944 -2.77498,-2.85712 -5.6911,-5.57368 -8.73745,-8.13949 -3.04611,-2.56581 -6.21862,-4.97769 -9.50565,-7.22659 -3.28724,-2.24885 -6.68489,-4.3319 -10.18022,-6.24135 -3.49538,-1.90963 -7.08407,-3.64325 -10.75264,-5.19438 -3.66896,-1.55092 -7.41319,-2.91736 -11.21867,-4.09421 -1.42662,-0.39262 -2.86041,-0.75869 -4.30063,-1.09804 -14.14688,11.18369 -26.2293,34.57475 -32.8107,54.55552 -12.96018,0.38127 -25.4582,4.90015 -35.665394,12.89544 -2.15922,-22.12637 1.466931,-50.55807 14.646924,-69.38315 z"
         style="fill:url(#radialGradient6219)"
         id="path19" />
    </clipPath>
    <linearGradient
       id="_lgradient_78"
       x1="0"
       x2="0"
       y1="0"
       y2="1"
       gradientTransform="matrix(117.16873,0,0,110.27645,69.41563,62.390233)"
       gradientUnits="userSpaceOnUse">
      <stop
         id="stop51"
         offset="0%"
         style="stop-color:#1fd1b0" />
      <stop
         id="stop53"
         offset="100%"
         style="stop-color:#00ffaa" />
    </linearGradient>
    <linearGradient
       id="linearGradient911"
       x1="0"
       x2="0"
       y1="0"
       y2="1"
       gradientTransform="matrix(117.16873,0,0,110.27645,69.41563,62.390233)"
       gradientUnits="userSpaceOnUse">
      <stop
         style="stop-color:#1fd1b0"
         id="stop907"
         offset="0%" />
      <stop
         style="stop-color:#00ffaa"
         id="stop909"
         offset="100%" />
    </linearGradient>
    <linearGradient
       id="_lgradient_139"
       x1="0"
       x2="0"
       y1="0"
       y2="1"
       gradientTransform="matrix(108,0,0,108,10.00011,7.9999983)"
       gradientUnits="userSpaceOnUse">
      <stop
         offset="0%"
         style="stop-color:#ee00ff"
         id="stop948-3" />
      <stop
         offset="100%"
         style="stop-color:#9914dc"
         id="stop950" />
    </linearGradient>
    <linearGradient
       id="paint0_linear"
       x1="64.5"
       y1="3.7941401"
       x2="64.5"
       y2="125.206"
       gradientUnits="userSpaceOnUse"
       gradientTransform="translate(-129.37186,16.700018)">
      <stop
         stop-color="#B9E968"
         id="stop22" />
      <stop
         offset="1"
         stop-color="white"
         stop-opacity="0"
         id="stop24" />
    </linearGradient>
    <linearGradient
       id="paint1_linear"
       x1="64.735298"
       y1="11.6933"
       x2="64.735298"
       y2="113.836"
       gradientUnits="userSpaceOnUse"
       gradientTransform="translate(-138.86887,-3.462857)">
      <stop
         stop-color="#B9E968"
         id="stop27" />
      <stop
         offset="1"
         stop-color="white"
         stop-opacity="0"
         id="stop29" />
    </linearGradient>
    <linearGradient
       id="paint1_linear-3"
       x1="64.735298"
       y1="11.6933"
       x2="64.735298"
       y2="113.836"
       gradientUnits="userSpaceOnUse"
       gradientTransform="translate(-2.2580897,-0.3945859)">
      <stop
         stop-color="#B9E968"
         id="stop27-6" />
      <stop
         offset="1"
         stop-color="white"
         stop-opacity="0"
         id="stop29-7" />
    </linearGradient>
  </defs>
  <path
     d="M 124.00001,63.999998 A 59.999999,59.999999 0 0 1 64.000011,124 59.999999,59.999999 0 0 1 4,63.999998 59.999999,59.999999 0 0 1 64.000011,4.000002 59.999999,59.999999 0 0 1 124.00001,63.999998 Z"
     style="fill:#deddda"
     id="path30" />
  <rect
     width="112"
     height="114"
     x="8"
     y="6"
     rx="56"
     ry="56"
     style="fill:#d5d3cf"
     id="rect32" />
  <path
     d="M 124.00001,62 A 59.999999,59.999999 0 0 1 64.000011,122 59.999999,59.999999 0 0 1 4,62 59.999999,59.999999 0 0 1 64.000011,1.9999952 59.999999,59.999999 0 0 1 124.00001,62 Z"
     style="fill:#3b97ff;fill-opacity:1"
     id="path34" />
  <circle
     cx="64"
     cy="62"
     r="54"
     style="fill:#000000;fill-opacity:0"
     id="circle36" />
  <g
     id="g888"
     transform="translate(-84.160481,31.504788)" />
  <g
     id="g1590"
     transform="translate(0.29222607,0.33770214)">
    <circle
       id="circle31"
       r="53.999989"
       cy="61.662285"
       cx="63.707779"
       style="fill:#ffffff;fill-opacity:1;stroke-width:0.48214275" />
    <circle
       style="fill:#0071f1;fill-opacity:1;stroke-width:0.44642857"
       cx="63.707779"
       cy="61.662285"
       r="50"
       id="circle867" />
    <circle
       id="circle869"
       r="35"
       cy="61.662285"
       cx="63.707779"
       style="fill:#002a5a;fill-opacity:1;stroke-width:0.3125" />
    <circle
       style="fill:#003d82;fill-opacity:1;stroke-width:0.26785713"
       cx="63.707779"
       cy="61.662285"
       r="30"
       id="circle871" />
    <path
       style="fill:#ffffff;fill-opacity:1;stroke:none;stroke-width:1px;stroke-linecap:butt;stroke-linejoin:miter;stroke-opacity:1"
       d="M 46.539062 29.847656 A 36.5 36.5 0 0 0 44.126953 31.230469 A 36.5 36.5 0 0 0 41.160156 33.353516 A 36.5 36.5 0 0 0 38.417969 35.761719 A 36.5 36.5 0 0 0 35.931641 38.431641 A 36.5 36.5 0 0 0 33.722656 41.335938 A 36.5 36.5 0 0 0 31.816406 44.445312 A 36.5 36.5 0 0 0 30.230469 47.730469 A 36.5 36.5 0 0 0 28.978516 51.158203 A 36.5 36.5 0 0 0 28.076172 54.693359 A 36.5 36.5 0 0 0 27.53125 58.300781 A 36.5 36.5 0 0 0 27.347656 61.945312 A 36.5 36.5 0 0 0 27.416016 63.880859 L 31.558594 63.894531 C 31.52233 63.267157 31.5 62.636298 31.5 62 C 31.5 49.642642 38.434321 38.873946 48.615234 33.378906 L 46.539062 29.847656 z M 82.566406 30.660156 L 80.603516 34.076172 C 90.113101 39.752976 96.5 50.143733 96.5 62 C 96.5 62.710591 96.468981 63.413893 96.423828 64.113281 L 100.23828 64.125 A 36.5 36.5 0 0 0 100.34766 61.945312 A 36.5 36.5 0 0 0 100.25781 59.363281 A 36.5 36.5 0 0 0 99.816406 55.740234 A 36.5 36.5 0 0 0 99.017578 52.181641 A 36.5 36.5 0 0 0 97.867188 48.71875 A 36.5 36.5 0 0 0 96.376953 45.388672 A 36.5 36.5 0 0 0 94.5625 42.222656 A 36.5 36.5 0 0 0 92.439453 39.255859 A 36.5 36.5 0 0 0 90.03125 36.515625 A 36.5 36.5 0 0 0 87.361328 34.027344 A 36.5 36.5 0 0 0 84.457031 31.820312 A 36.5 36.5 0 0 0 82.566406 30.660156 z M 51.140625 37.677734 C 42.425239 42.284391 36.5 51.432849 36.5 62 C 36.5 62.643576 36.529035 63.279739 36.572266 63.912109 L 63.404297 64.001953 L 50.708984 86.089844 C 54.646236 88.261979 59.174422 89.5 64 89.5 C 69.536764 89.5 74.680764 87.868141 78.990234 85.066406 L 66.617188 64.013672 L 91.412109 64.095703 C 91.464051 63.403268 91.5 62.706003 91.5 62 C 91.5 51.953058 86.142701 43.188776 78.125 38.390625 L 64.990234 61.244141 L 51.140625 37.677734 z M 81.511719 89.355469 C 76.453287 92.60523 70.445677 94.5 64 94.5 C 58.280652 94.5 52.904013 93.009341 48.230469 90.404297 L 46.222656 93.898438 A 36.5 36.5 0 0 0 46.349609 93.976562 A 36.5 36.5 0 0 0 49.634766 95.5625 A 36.5 36.5 0 0 0 53.0625 96.814453 A 36.5 36.5 0 0 0 56.597656 97.716797 A 36.5 36.5 0 0 0 60.205078 98.261719 A 36.5 36.5 0 0 0 63.847656 98.445312 A 36.5 36.5 0 0 0 66.429688 98.353516 A 36.5 36.5 0 0 0 70.052734 97.914062 A 36.5 36.5 0 0 0 73.611328 97.115234 A 36.5 36.5 0 0 0 77.074219 95.964844 A 36.5 36.5 0 0 0 80.404297 94.474609 A 36.5 36.5 0 0 0 83.482422 92.708984 L 81.511719 89.355469 z "
       transform="translate(-0.29222607,-0.33770214)"
       id="path899" />
    <circle
       id="circle892"
       r="7.5"
       cy="61.662285"
       cx="63.707779"
       style="fill:#003d82;fill-opacity:1;stroke-width:5;stroke:#ffffff;stroke-opacity:1;stroke-miterlimit:4;stroke-dasharray:none" />
  </g>
  <path
     d="M 64.00011,7.9999983 A 54.000004,54.000004 0 0 0 10.000107,62 54.000004,54.000004 0 0 0 10.041612,63.170902 54.000004,54.000004 0 0 1 64.000115,9.9999965 54.000004,54.000004 0 0 1 117.95861,62.828126 54.000004,54.000004 0 0 0 118.00013,62 54.000004,54.000004 0 0 0 64.000114,7.9999983 Z"
     style="opacity:0.1"
     id="path38" />
</svg>
